X:1
T:James Gibb editions
T:Psalm 48 (Becker) - Schütz
%%score [ ( 1 2 ) ( 3 4 ) ]
L:1/8
Q:1/4=120
M:2/2
K:C
V:1 treble nm="Soprano Alto"
V:2 treble 
V:3 bass nm="Tenor Bass"
V:4 bass 
V:1
"^Cornelius Becker\n(1561-1604)""^Psalm 48, SWV 145""^Heinrich Schütz\n(1585-1672)" A8 | G4 A4 | %2
w: ||
 F4 F4 | (A3 _B c2) B2 | A8 | d8 |[M:2/2] c4 e4 | d4 A4 | (_B3 c !courtesy!_B2) A2 | G6 A2 | %10
w: ||||der Stadt,|die Gotts|ei\- * * gen|heißt, auf|
 c2 _B2 A2 d2 | ^c6 | (cd) e2 (cd) e2 | (A!courtesy!=B) c2 !courtesy!=B2 A2 | (FG) A2 (FG) A2 | %15
w: sei- nem hei- l'gen|Berg|wie * ein schön * Zweig-|lein * ist Zi- on,|das * gan- ze * Land|
 D2 G4 E4 | D8 x2 |] %17
w: hat Trost- da-|von.|
V:2
 F8 | E4 E4 | D4 D4 | (F3 E/D/ C2) G2 | ^F8 | A8 |[M:2/2] A4 A4 | F4 F4 | F6 F2 | E6 F2 | %10
w: ~Groß|ist der|Herr und|hoch * * * ge-|preist|in|||||
 G2 G2 F2 G2 | A6 | E2 G2 F2 E2 | D2 E2 E2 E2 | D2 E2 D2 F2 | F2 (E2 D4) x2 | ^C2 D8 |] %17
w: |||||||
V:3
 D8 | B,4 A,4 | A,4 _B,4 | (C3 _B, A,2) D2 | D8 | F8 |[M:2/2] E4 C4 | A,4 D4 | (D3 C D2) C2 | %9
 C6 C2 | E2 D2 D2 D2 | E6 | %12
"^2. Dem Berg Zion liegt an der Seit geg'n Mitternacht gar schön bereit\ndes großen Königs Stadt, Gott unser Schutz und Trutz genannt,\nin ihr'n Palästen ist bekannt.\n\n3. Obgleich König mit ihrer Macht sie zu bekriegen hab'n gedacht,\nist doch nichts worden d'raus, all Feind zu Wasser und zu Land\nzerstreuet Gottes starke Hand.\n\n4. Dies rühmten unser Väter sehr, und wir erfahrens noch viel mehr\nan Gottes Kirch und G'mein, daß sie kein Feind bewältigt nicht,\ndenn Gott erhält sie ewiglich.\n\n5. Damit auch wird in künft'ger Zeit des Herren Lob weit ausgebreit\nund man von ihm stets sag: Der Herr ist ewig unser Gott,\ner führt uns wie die Jugend gut." C2 B,2 A,2 G,2 | %13
 F,2 A,2 ^G,2 A,2 | A,2 C2 _B,2 C2 | _B,2 !courtesy!_B,4 A,4 | A,8 x2 |] %17
V:4
 D,8 | E,4 ^C,4 | D,4 _B,,4 | (F,3 G, A,2) G,2 | D,8 | D,8 |[M:2/2] A,4 A,4 | D,4 D,4 | %8
 (_B,,3 A,, !courtesy!_B,,2) F,2 | C,6 F,2 | C,2 G,2 D,2 _B,2 | A,6 | A,2 E,2 F,2 C,2 | %13
 D,2 A,,2 E,2 A,,2 | D,2 A,,2 _B,,2 F,,2 | _B,,2 G,,4 A,,4 | D,8 x2 |] %17

